X: 1803
T: The White Cockade
M:C
L:1/8
B:O'Neill's 1803
Z:"Transcribed by Bob Safranek, rjs@gsp.org"
K:Bphr
(GA) | B2 (Bd) (cB)(AG) |   BABc    B2 (gf) | (ed)(cB) (cB)(AG) | E2 AA A2 GA |
       B2 (Bd) (cB)(AG) | (Bd)(ef) (gf)(ga) | (ba)(gf) (ag)(fe) | d2 B2 B2   ||
(Bc) | .d2 .B2 .f2 .B2  | (dc)(de)  d2 (Bc) |  d2 (Bd)  g2 (fg) | a2 AA A (GA) |
       B2 (Bd) (cB)(AG) | (Bd)(ef) (gf)(ga) | (ba)(gf) (ag)(fe) | d2 B2 B2   |]


